X:1
T:In illo tempore (CS)
T:In illo tempore (CS)
T:(Colyn) Samson
C:(Colyn) Samson
%%score [ 1 [ 2 3 ] 4 ]
L:1/8
Q:1/4=120
M:2/2
K:F
V:1 treble nm="Soprano" snm="S"
V:2 treble-8 nm="Tenor 1" snm="T 1"
V:3 treble-8 nm="Tenor 2" snm="T 2"
V:4 bass nm="Bass" snm="B"
V:1
 z8 | z8 | c8 | c4 c4 | A6 F2 | F4 z2 A2 | A2 F2 A3 B | c2 F2 F2 d2- | dc c4 B2 | c4 z2 G2- | %10
w: ||In|il- lo|tem- po-|re, n|il- lo tem- *|* po- re, tem-|* * * po-|re, li-|
w: ||||||||||
 G2 G2 A4 | B2 B2 c3 B | G2 A3 G G2- | G2 F2 G2 G2 | A3 G F2 E2 | D2 C4 B,2 | C4 z2 F2- | F2 A6 | %18
w: * ti- ga-|bant Ju- dae- *|i ad _ in-|* vi- cem- di-|cen- * * *||tes: quo-|* mo-|
w: ||||||||
 c2 c4 c2- | c2 c2 A2 G2 | A2 A2 A2 F2 | G4 F2 A2- | AG c2 c2 B2 | c4 z2 B2 | c2 c2 d4 | %25
w: do po- test|_ hic no- bis|car- nem su- *|am da- re|_ ad man- du- can-|dum, ad|man- du- can-|
w: |||||||
 cB AG B3 A | G2 F2 G4 | F8- | F8 | z8 | z8 | z8 | c6 B2 | A2 G2 F2 E2 | DC F4 E2 | F8- | F8 | z8 | %38
w: ||dum?|_||||Di- xit|er- go e- *|* * is Je-|sus:|_||
w: |||||||||||||
 z8 | z4 G4 | F4 F4 | E2 E4 E2- | E2 C3 DEF | GA B2 A4 | G2 F3 EFG | A8 | z8 | z8 | z8 | z8 | %50
w: |A-|men, a-|men di- co|_ vo- * * *|||bis|||||
w: ||||||||||||
 c3 c c2 c2 | A2 B2 c2 d2- | d2 B2 c2 d2- | dc BA G4 | c3 B AG F2- | F2 B3 AGF | E2 F4 E2 | %57
w: ni- si man- du-|ca- ve- ri- tis|_ car- nem Fi|_ _ li- * i|ho- * * * *||* * mi-|
w: |||||||
 F4 z2 F2- | F2 F2 F4- | F2 F2 F4 | z2 A2 A2 c2- | c2 A2 G4 | z2 A2 A2 c2- | c2 A2 A2 A2 | %64
w: nis, et|_ bi- be-|* ri- tis|e- ius san|_ gui- nem,|non ba- be-|* * tis vi-|
w: |||||||
 d4 G2 c2- | cBAG F4 | z8 | z4 z2 d2 | c2 A2 B2 c2 | F4 c4 | z2 F2 E2 C2 | D4 z4 | E8 | E4 A4 | %74
w: tam in vo-|* * * * bis,||vi-|tam in vo- *|bis, _|in vo- *|bis,|qui|man- du-|
w: ||||||||||
 F8 | D4 D4 | G4 G4 | z2 E2 E2 E2 | F6 E2 | D2 D2 C4 | z8 | z8 | z4 c4- | c4 A2 A2- | A2 GF E4 | %85
w: cat|me- am|car- nem|et bi- bit|me- um|san- gui- nem,|||ha-|* bet vi-|* * * tam|
w: |||||||||||
 E4 F3 G | A3 B c4- | c4 B4 | c4 z2 c2 | c4 A2 A2 | A4 F4 | z8 | z2 B2 B4 | G2 c4 c2 | A2 B4 G2- | %95
w: ae- ter- *|||nam, et|e- go, et|e- go,||et e-|go re- su-|sci- ta- bo|
w: ||||||||||
 G2 A4 F2 | F4 z4 | z4 z2 G2 | G2 G2 A4 | F4 G4 | E4 z2 F2- | F2 D2 d3 c | B2 A2 G4 | c4 F4- | %104
w: _ e- *|um,|re-|su- sci- ta-|bo e-|um in|_ no- vis- *|* si mo|_ di-|
w: |||||||||
 F2 E2 D4 | d2 c2 B2 A2- | AG F4 E2 | F8 | F8 | D8 || c6 B2 | A2 G2 F2 E2 | F2 A3 G F2- | %113
w: * * e,|in no- vis- si-||mo|mo|e.|Ca- ro|me- a ve- re|est ci- * *|
w: |||||||||
 F2 E2 F4- | F4 z2 E2 | D2 C2 D4 | C4 z2 C2 | F6 F2 | G4 F2 A2 | G2 c4 B2 | c8- | c4 z4 | z8 | z8 | %124
w: * * bus,|_ ve-|re est ci-|bus et|san- guis|me- us ve-|re est po-|tus,|_|||
w: |||||||||||
 z8 | c4 A4 | B4 G4 | c4 c2 d2- | dc c4 B2 | c4 z4 |: z2 G4 c2- | c2 A4 B2- | B2 G4 A2- | %133
w: |qui man-|du- cat|me- am car-||nem|et bi-|* bit me-|* um san-|
w: |||||||||
 A2 F2 G4 |1 G4 F4 :|2 B2 G4 A2- || A2 F2 G4 | z4 E4 | E4 F4 | E4 z2 E2 | E4 F4 | E4 A3 G | %142
w: |gui- nem|* um san-|* gui- nem,|in|me ma-|net et|e- *|go in _|
w: |||||||||
 EF G2 C2 c2 | B8 | A6 F2 | F4 z4 | z8 | z8 | z2 G2 G2 G2 | A4 F2 B2- | B2 G2 c4 | BA A4 G2 | %152
w: il- * * * lo,|in|il- *|lo,|||et e- go|vi- vo pro-|* pter Pa-||
w: ||||||||||
 A4 z2 A2 | G2 G2 F2 F2 | E4 z4 | z2 G2 A2 F2 | G2 E2 F2 D2 | C4 z2 G2 | A2 F2 G2 E2 | %159
w: trem et|qui man- du- cat|me|et i- pse|vi- vet pro- pter|me, et|i- pse vi- vet|
w: |||||||
 F2 D2 C2 z2 | z4 c3 B | AGFG A4 | D2 F4 E2 | F2 A2 G2 F2- | F2 ED E4 | F2 c4 c2 | A4 A4 | d8 | %168
w: pro- pter me,|pro- *||* * pter|me, [pro- * *|* * * pter|me,] hic est|pa- nis|vi-|
w: |||||||||
 G8 | c6 c2 | c4 A4 | A4 d4- | d2 c2 B2 A2 | G4 G4 | c6 B2 | A2 G2 F4- | F4 z4 | z8 | z4 c3 B | %179
w: vus|qui de|coe- *|lo, de-|* scen- dit de|coe- lo,|de- *|scen- * dit,|_||de- *|
w: |||||||||||
 A2 G2 F2 E2 | D4 C2 F2- | F2 ED E4 |:[M:3/2] F8 z4 | z4 c4 c4 | G4 B4 F2 G2 | A2 B2 c4 C4- |1 %186
w: scen- * * *|||dit,|non si-|cut pa- * *|* * tres ve-|
w: ||||man- du-|ca- ve- * *|* * runt man-|
 C2 D2 E2 F2 G4 :|2 C2 D2 E4 F4 || D4 E2 F4 E2 |[M:2/2] F8 | F8 | B4 B2 B2 | G8- | G8 | A6 A2 | %195
w: * * * * stri-|||na|et|mor- tu- i|sunt.|_|Qui man-|
w: |||||||||
 A4 B4 | B4 A4- | A2 GF G4 | A4 z4 | c8 | A4 B4- | B4 G4 | A8 | F4 G4 | z2 G2 E2 C2 | c6 c2 | c8 | %207
w: du- cat|hunc pa-||nem,|vi-|vet in|_ ae-|ter-|num, _|vi- vet- in|ae- ter-|num,|
w: ||||||||||||
 B8 | z2 c4 A2 | B4 G2 A2- | A2 F2 G2 c2- | cB A3 G F2- | FG A3 B c2- | cG c4 B2 | cBAG F2 G2 | %215
w: _|vi- vet|in ae- ter-|||* * * * num,|_ in ae- *|ter- * * * * *|
w: ||||||||
 C2 F4 E2 | F3 G AB c2 | d2 c2 B4 | A8 |] %219
w: |||num.|
w: ||||
V:2
 g8 | g4 g4 | e6 c2 | c4 z2 f2 | f2 f2 e2 c2- | c2 d2 cA c2- | cB AG F2 f2- | fedc f3 g | a6 gf | %9
w: In|il- lo|tem- po-|re in|il- lo tem- po-|||||
w: |||||||||
 e2 g3 fed | e4 A4 | z8 | z8 | z8 | z8 | z8 | F4 A4 | c4 z2 c2- | c2 e4 g2- | g2 g2 f2 e2 | f4 f4 | %21
w: |re, _||||||quo- mo-|do, quo-|* mo- do|_ po- test hic|no- bis|
w: ||||||||||||
 z2 e2 f2 d2 | g2 e2 f2 g2 | e2 a2 gfed | e4 d2 d2 | e2 c2 d4 | e2 f2 c4- | c2 A2 A4- | A4 z4 | %29
w: car- nem su-|am da- re ad|man- du- can- * * *|* dum, [ad|man- du- can-||* * dum?]|_|
w: ||||||||
 f2 e2 d2 B2 | c4 G3 A | Bc dB c4 | F4 f4- | f2 e2 d2 c2 | B2 A2 G4 | d4 z2 d2- | d2 d2 d2 d2 | %37
w: Di- xit er- go|e- is _|_ _ _ _ Je-|sus, di-|* xit er- go|e- is Je-|sus: A-|men di- co vo-|
w: ||||||||
 c4 B3 c | dG g2 f2 _ed | cB B2 c4 | A8 | z2 G4 G2 | G2 G2 A4 | G2 d4 c2- | c2 A2 B4 | A8 | z8 | %47
w: |||bis,|A- men|di- co vo-|||bis,||
w: ||||||||||
 z8 | z8 | z8 | z2 f3 f f2 | f2 d2 e2 f2 | g4 e2 f2 | g3 f ed c2- | c2 f3 edc | B6 G2 | %56
w: |||ni- si man-|du- ca- ve- ri-|tis car- nem|Fi- li- * * i|_ ho- * * *|* mi-|
w: |||||||||
 g2 f2 e2 c2 | c4 z2 c2- | c2 c2 d4- | d2 c2 c4 | z2 c2 c2 A2- | A2 F2 E4- | E4 z2 e2- | %63
w: |nis, et|_ bi- be-|* ri- tis|e- ius san-|* gui- nem,|_ non|
w: |||||||
 e2 e2 f2 f2 | d4 g3 f | e3 d c4 | d2 G2 A2 B2- | B2 A4 G2 | A2 c2 d2 cB | A2 B2 c2 d2- | %70
w: _ ha- be- tis|vi- tam _|_ _ _|in vo- * *||bis, in vo- * *||
w: |||||||
 dc B4 A2 | B4 z4 | G8 | G4 A4 | A4 F2 F2 | B3 c d4 | d4 z4 | z2 c2 c2 c2 | d4 A4 | B2 B2 A4 | z8 | %81
w: |bis,|qui|man- du-|cat me- am|car- * *|nem|et bi- bit|me- am|san- gui- nem,||
w: |||||||||||
 z8 | z4 e4- | e4 f4 | f4 g2 a2- | a2 g2 a2 f2- | f2 f2 e2 f2 | g4 z2 g2 | g4 e2 e2 | e4 c4 | %90
w: |ha|_ bet|vi- tam ae-|* ter- * *||nam, et|e- go, et|_ go,|
w: |||||||||
 z2 A2 A4 | F2 z2 z4 | z8 | z4 f4 | f2 d4 d2 | e2 c2 d4- | d2 cB A4 | d2 d2 d2 e2- | e2 c4 d2- | %99
w: et e-|go,||re|su- sci- ta|_ bo e-|* * * um,|re- sus- sci- ta|_ bo e-|
w: |||||||||
 d2 A2 z4 | c4 c2 d2- | d2 B2 B2 G2 | g6 f2 | e2 d2 c4 | z4 z2 G2 | B2 c2 d2 A2 | c4 z2 c2- | %107
w: * um,|in no- vis-|* * si- mo|di- *|* * e,|di-||e, di-|
w: ||||||||
 c2 A4 d2- | d2 B2 B4- | B8 || z4 f4- | f2 e2 d2 c2 | B2 A2 B4 | c4 A4- | A4 z4 | z8 | G4 c4- | %117
w: |* * e.|_|Ca-|* ro ma ve-|re est ci-|* bus|_||et san-|
w: ||||||||||
 c2 c2 d4 | c4 f4 | e2 c2 d4 | c8 | z8 | z8 | z8 | z2 g4 e2- | e2 f4 d2- | d2 g4 e2- | e2 f4 d2 | %128
w: * guis me-|us ve-|re est po-|tus,||||qui man-|* du- cat|_ me- am|_ car- *|
w: |||||||||||
 f2 e2 d4 | c4 z2 d2- |: d2 g4 e2- | e2 f4 d2- | d2 e4 c2 | d8 |1 e4 z2 d2- :|2 d2 e4 c2 || d8 | %137
w: |nem et|_ bi- bit|_ me- um|_ san- *|gui-|nem et|* san- gui-|nem,|
w: |||||||||
 z4 c4 | c4 c4 | c4 z2 c2- | c2 c4 c2- | c2 c4 c2 | c4 z2 c2 | g8 | c4 z2 c2 | c4 d4 | e4 e2 f2- | %147
w: in|me ma-|net et|_ e- go|_ in il-|lo, in|il-|lo, sic-|ut mi-|sit me vi-|
w: ||||||||||
 f2 e4 d2 | e8 | z2 e2 f2 f2 | g4 e4 | f2 e4 d2 | e4 z2 f2 | d2 e2 c2 c2 | c2 z2 c2 d2 | %155
w: * vens Pa-|ter,|et e- go|vi- vo|pro pter Pa-|trem et|qui man- du- cat|me et i-|
w: ||||||||
 B2 c2 A2 B2 | G2 G2 z4 | z8 | z4 c4 | A2 B2 A4 | G2 g3 fed | c4 f3 e | dc/B/ c2 d2 c2 | A4 B4 | %164
w: pse vi- vet pro-|pter me,||et|i- pse vi-|vet pro- * * *||||
w: |||||||||
 G8 | F8 | z4 f4- | f2 f2 d4 | d4 g4- | g2 c2 c4- | c4 f4- | f2 f2 f4 | d4 d4 | g6 f2 | e2 d2 c4 | %175
w: pter|me,|hic|_ est pa-|nis vi-|* * vus|_ qui|_ de coe-|* lo|de- *|scen- * *|
w: |||||||||||
 c4 f4- | f2 e2 d2 c2 | B8 | z4 g4 | fedc d2 e2 | f2 F3 GAB | c8 |:[M:3/2] A4 f4 f4 | c4 _e6 d2 | %184
w: dit, de-|* * scen- *|dit,|de-|scen- * * * * *|||dit- non sic-|ut pa- tres|
w: |||||||stri man- du-|ca- ve- runt|
 B2 c2 d2 e2 f4 | F2 G2 A2 B2 c4 |1 A8 G4 :|2 F2 f2 e4 d4 || d4 c8 |[M:2/2] c8 | c8 | d6 d2 | %192
w: ve- * * * *|||||na-|et|mor- tu-|
w: man- * * * *||||||||
 c6 B2 | B8 | f6 f2 | f4 f4 | f4 f4 | d6 e2 | f8 | z4 f4- | f4 d4 |"^b" e8 | c4 d4- | d4 B4 | c8 | %205
w: i _|sunt.|Qui man-|du- cat|hunc pa-||nem,|vi-|* vet|in|ae- ter-|* num,|vi-|
w: |||||||||||||
 A6 A2 | G6 A2 | B8 | z4 f4 |"^b" d2 e4 c2 | d4 B2 c2- | cd e2 f2 ed | c4 z2 g2- | g2 f2 g4 | %214
w: vet in|ae- ter-|num,|vi-|vet in ae-|ter- * *||num, in|_ ae- ter-|
w: |||||||||
 e2 f3 e c2- | c2 B2 c4 | A2 f4 e2 | d2 A2 d4 | c8 |] %219
w: ||||num|
w: |||||
V:3
 z8 | z8 | z8 | c8 | c4 c4 | A6 F2 | F4 z2 f2 | f4 d2 f2- | fedc d2 d2 | c8 | z2 c4 c2 | d4 e4 | %12
w: |||In|il- lo|tem- po-|re,- in|il- lo tem-|* * * * * po-|re|li- ti-|ga- bant|
w: ||||||||||||
 e2 f3 edc | d4 e2 c2 | f3 e d2 c2 | B2 A2 G4 | F2 F6 | A6 c2- | c2 c2 c2 c2 | c2 c2 c2 c2 | %20
w: Ju- dae- * * *|* i ad|in- vi- cem di-|cen- * *|tes: quo-|mo- do|_ po- test hic|no- bis su- am|
w: ||||||||
 c2 c2 d4 | e4 z2 f2 | e2 c2 d4 | c4 z2 d2 | c2 A2 B4 | A2 F2 BA GF | ED F4 E2 | F8 | c3 B A2 G2 | %29
w: car- nem da-|re- ad|man- du- can-|dum, ad|man- du- can-|||dum?|Di- xit er- go|
w: |||||||||
 F2 G4 F2 | G2 C3 DEF | G2 A2 G4 | A8 | z8 | z8 | z4 F4- | F2 F2 F4 | F2 E4 D2- | D2 E2 F2 G2- | %39
w: e- * *|is Je- * * *||sus:|||A-|* men, a-|men, di- co|_ vo- * *|
w: ||||||||||
 G2 F4 E2 | F8 | z8 | z8 | z8 | z8 | c3 c c2 c2 | A2 B2 c2 d2- | d2 B2 c2 d2- | dc BA G2 c2- | %49
w: |bis,|||||ni- si man- du-|ca- ve- ri- tis|_ car- nem Fi-|* * li- * i ho-|
w: ||||||||||
 cB A2 G2 G2 | F8 | z8 | z4 z2 d2 | B2 G4 c2- | cB AG F4 | B3 A GF G2- | G2 A2 G4 | F4 z2 A2- | %58
w: * * * * mi-|nis,||Fi-|li- i ho-||mi- * * * *||nis, et|
w: |||||||||
 A2 A2 B4- | B2 A2 A4 | z2 A4 A2 | c6 BA | A8 | z2 A4 A2 | B2 B2 G4 | c3 B A2 G2 | F2 E3 D F2- | %67
w: _ bi- be-|* ri- tis|e- ius|san- gui- *|nem,-|non ha-|be- tis vi-||* tam in vo|
w: |||||||||
 FE E4 D2 | E2 A2 G2 E2 | F4 E2 A2- | AG F4 E2 | F4 z4 | c8 | c4 c4 | A4 d4 | d4 B4- | B2 G2 G4- | %77
w: _ _ _ _||||bis,|qui|man- du-|cat me-|am car-|* * nem|
w: ||||||||||
 G8 | z8 | z4 z2 A2 | A2 A2 B4- | B2 A2 G2 G2 | F4 c4- | c4 c4 | c8 | c8 | c8 | d8 | c8 | %89
w: _||et|bi- bit me-|* am san- gui-|nem ha-|* bet|vi-|tam|ae-|ter-|nam,|
w: ||||||||||||
 z2 c2 c4 | A4 z2 f2 | f4 d4 | z2 d2 d2 d2 | e4 c4 | d4 B4 | z4 z2 B2 | B2 B2 c4 | A4 B4 | %98
w: et e-|go, et|e- go,|re- su- sci-|ta- bo|e- um,|re-|su- sci- ta-|bo e-|
w: |||||||||
 G4 z2 A2- | A2 A2 B4 | G2 G2 A4 | F4 z4 | z4 c4- | c2 B2 A2 G2 | F4 B4- | B2 A2 G2 F2 | G8 | F8- | %108
w: um in|_ no- vis-|si- mo di-|e,|in|_ no- vis- si-|mo di-|||e.|
w: ||||||||||
 F8- |"^Secunda\n    Pars" F8 || z8 | z8 | z8 | c6 B2 | A2 G2 F2 E2 | F2 A3 G F2- | F2 E2 F4- | %117
w: _|||||Ca- ro|me- a ve- re|est ci- * *|* * bus|
w: |||||||||
 F8 | z8 | z8 | G4 c4- | c2 c2 d4 | c4 f4- | f2 e2 d2 c2- |"^-natural" c2 B2 c4 | z8 | z8 | z8 | %128
w: _|||et san-|* guis me-|us ve-|* re est po-|* * tus,||||
w: |||||||||||
 z4 G4 | c4 A4 |: B4 G4 | A4 F4 | G4 z4 | z4 G4 |1 c4 A4 :|2 G4 E2 E2 || F2 A2 G4 | z4 G4 | G4 A4 | %139
w: et|bi- bit|me- um|san- gui-|nem|et|bi- bit|nem me- um|san- gui- nem,|in|me ma-|
w: |||||||||||
 G4 z2 G2 | G4 A4 | G4 c3 B | A2 G4 F2- | F2 ED E4 | F8 | z2 F4 G2- | G2 A4 A2- | A2 A2 c2 B2 | %148
w: net et|e- *|go in _|il- * *||lo,|sic- ut|_ mi- sit|_ me vi- vens|
w: |||||||||
 A2 GF E2 c2 | c2 c2 d4 | B2 c4 A2 | d2 c2 B4 | A4 z2 A2 | B2 G2 A2 A2 | G4 z4 | z8 | z2 c2 d2 B2 | %157
w: Pa- * * ter et|e- go vi-|vo pro- pter|Pa- * *|trem et|qui man- du- cat|me||et i- pse|
w: |||||||||
 c2 A2 B2 G2 | F2 f2 e2 c2 | d2 B2 c2 d2- | dcBA G4 | c3 B AG F2- | F2 A2 G4 | F8 | z4 c4- | %165
w: vi- vet pro- pter|me, et i- pse|vi- vet pro- *|||* * pter|me,|hic|
w: ||||||||
 c2 c2 A4 | A4 d4- | d4 G4- | G4 c4- | c2 c2 c4 | A4 A4 | d6 c2 | B2 A2 G4 | G4 c4- | c2 B2 A2 G2 | %175
w: _ est pa-|nis vi-|* vus|_ qui|_ de coe-|* lo|de- *|scen- * *|dit, de-|* * scen- *|
w: ||||||||||
 F4 F4 | f6 e2 | d2 c2 B2 A2 | G2 F4 E2 | F3 G AB c2 | FGAB c2 A2 | G8 |:[M:3/2] F8 z4 | c4 c4 G4 | %184
w: * dit,|de- *|scen- * * *|* * dit,|de- * * * scen-|||dit|non sic- ut|
w: ||||||||man- du- ca-|
 B8 A4 | F6 G2 A2 B2 |1 c12 :|2 c6 B2 A4 || B4 G8 |[M:2/2] F8 | A8 | B6 G2 | G8 | G8 | c6 c2 | %195
w: pa tres|ve- * * *|stri-|||na|et|mor- tu-|i|sunt.|Qui man-|
w: ve- runt|man- * * *||||||||||
 c4 d4 | d4 c4- | c2 BA B4 | c8- | c8 | z8 | z4 c4- | c4 A4 | B8 | G4 A4- | A4 F4 | c6 c2 | d8 | %208
w: du- cat|hunc pa-||nem,|_||vi-|* vet|in|ae- ter-|* num,|in ae-|ter-|
w: |||||||||||||
 c8 | z4 c4 | A2 B4 G2 | A4 F4 | f6 e2 | d2 c2 d4 | c3 B A2 G2 | F4 G4 | F8- | F8- | F8 |] %219
w: num,|vi-|vet in ae-|ter- num,|vi- vet|in ae- ter-|||num.|_||
w: |||||||||||
V:4
 z8 | C,8 | C,4 C,4 | A,,6 F,,2 | F,,4 z2 F,2 | F,2 D,2 F,3 G, | A,2 D,2 D,4 | z2 B,2 B,3 A,/G,/ | %8
w: |In|il- lo|tem- po-|re, i|il- lo tem- *|* po- re,|in il- * *|
w: ||||||||
 F,3 E, F,2 G,2 | C,8 | C,4 F,4 | z8 | z8 | z8 | z8 | z8 | z4 F,,4- | F,,4 A,,4- | A,,4 C,2 C,2- | %19
w: * * lo tem-|po-|re, _||||||quo-|* mo-|* do po-|
w: |||||||||||
 C,2 C,2 F,,2 C,2 | F,,2 F,4 F,2 | E,2 C,2 D,4 | C,4 z2 G,2 | A,2 F,2 G,4 | C,4 z4 | z4 B,,4 | %26
w: * test hic no-|bis car- nem|su- am da-|re ad|man- du- can-|dum,|ad|
w: |||||||
 C,2 D,2 C,4 | F,,4 z4 | F,6 E,2 | D,2 C,2 D,4 | C,3 D, E,F, G,2- | G,2 F,4 E,2 | F,8 | z8 | z8 | %35
w: man- du- can-|dum?|Di- xit|er- go e-|is _ _ _ Je-||sus:|||
w: |||||||||
 B,,6 B,,2 | B,,4 B,,4 | A,,4 G,,3 A,, |"^b" B,,2 C,2 D,2 E,2- | E,2 D,2 C,4 | D,8 | z8 | z8 | z8 | %44
w: A- men,|a- men,|di- co _|_ vo- * *||bis,||||
w: |||||||||
 z8 | z2 F,3 F, F,2 | F,2 D,2 E,2 F,2 | G,4 E,2 F,2 | G,3 F, E,D, C,2- | C,2 F,4 E,2 | F,4 z4 | %51
w: |ni- si man|du- ca- ve- ri-|tis car- nem|Fi- li- * * i|_ ho- mi-|nis,|
w: |||||||
 z8 | z8 | z4 C,3 B,, | A,,G,, F,,4 B,,2- | B,,A,,G,,F,, G,,4 | C,2 F,,2 C,2 C,2 | F,,4 z2 F,,2- | %58
w: ||Fi- *|li- * i ho-||* * * mi-|nis et|
w: |||||||
 F,,2 F,,2 B,,4- | B,,2 F,,2 F,,4 | z2 F,,4 F,,2 | A,,3 B,, C,4- | C,2 A,,2 A,,4- | A,,4 z2 D,2- | %64
w: _ bi- be|_ ri- tis|e- ius|san- * *|* gui- nem|_ non|
w: ||||||
 D,2 D,2 E,2 E,2 | C,4 F,3 E, | D,2 C,2 A,,2 D,2- | D,2 C,2 B,,4 | A,,4 z2 C,2 | %69
w: _ ha- be- tis|vi- * *|* tam in vo-||bis, vi-|
w: |||||
 D,2 B,,2 C,F,, F,2- | F,E, D,2 C,4 | B,,4 z4 | C,8 | C,4 F,4- | F,4 D,4- | D,4 G,4 | G,4 E,4- | %77
w: * * tam in vo-||bis,|qui|man- du-|* cat|_ me-|am car-|
w: ||||||||
 E,2 C,2 C,4 | z8 | z4 z2 F,2 | F,2 F,2 G,4 | D,4 E,2 C,2 | D,4 C,4- | C,4 F,,2 F,2- | %84
w: * * nem||et|bi- bit me-|am san- gui-|nem ha-|* bet vi-|
w: |||||||
 F,2 E,D, C,2 A,,2- | A,,B,, C,2 F,,2 F,2- | F,E,F,G, A,4 | G,8 | z2 C,2 C,4 | A,,4 z2 F,2 | %90
w: |* * * tam ae-|* * * * ter-|nam,|et e-|go, et|
w: ||||||
 F,4 D,4 | z2 B,2 B,4 | G,4 G,2 G,2 | G,2 A,4 F,2- | F,2 G,6 | E,2 F,2 D,4 | z4 z2 F,2 | %97
w: e- go,|et e-|go re- su-|sci- ta- bo|_ e-|* * um,|re-|
w: |||||||
 F,2 F,2 G,4 | E,4 F,4 | D,4 z2 E,2- |"^b""^b" E,2 E,2 F,4 | D,2 D,2 G,4- | G,2 F,2 E,2 D,2 | %103
w: su- sci- ta-|bo e-|um in|_ no- vis-|si- mo di-||
w: ||||||
 C,4 F,3 E, | D,2 C,2 B,,2 G,,2- | G,,2 A,,2 B,,2 D,2 | C,8 | z2 D,4 B,,2 | B,,8- | B,,8 || z8 | %111
w: e, in _|_ no- * *|* * vis- si-|mo|di- *|e.|_||
w: ||||||||
 z8 | z8 | z4 F,4- |"^-natural" F,2 E,2 D,2 C,2 | B,,2 A,,2 B,,4 | C,4 F,,4- | F,,4 z4 | z8 | %119
w: ||Ca-|* ro me- a|ve- re ci-|* bus|_||
w: ||||||||
 z4 G,,4 | C,6 C,2 | F,4 D,4 | F,6 E,2 |"^-natural" D,2 C,2 D,2 E,2 | F,2 G,2 C,4 | z8 | z8 | z8 | %128
w: et|san- guis|me- us|ve- re|est po- * *|* * tus,||||
w: |||||||||
 z8 | C,4 F,2 D,2- |: D,2 _E,4 C,2- | C,2 D,4 B,,2- | B,,2 C,4 A,,2 | D,2 D,2 G,,4 |1 %134
w: |et bi- bit|_ me- um|_ san- *||* gui- nem,|
w: ||||||
 z2 C,2 F,2 D,2 :|2 B,,2 C,4 A,,2 || D,2 D,2 G,,4 | z4 C,4 | C,4 F,,4 | C,4 z2 C,2 | C,4 F,4 | %141
w: et bi- bit-||* gui- nem,|in|me ma-|net et|e- *|
w: |||||||
 C,3 B,, A,,G,, F,,2- | F,,2 C,2 B,,2 A,,2 | G,,8 | F,,8- | F,,4 z4 | z8 | z8 | z8 | z8 | z8 | z8 | %152
w: go _ _ _ in|_ il- * *||lo,|_|||||||
w: |||||||||||
 z4 z2 F,2 | G,2 E,2 F,2 F,2 | C,2 G,2 A,2 F,2 | G,2 E,2 F,2 D,2 | C,4 z2 G,2 | A,2 F,2 G,2 E,2 | %158
w: et|qui man- du- cat|me et i- pse|vi- vet pro- pter|me, et|i- pse vi- vet|
w: ||||||
 F,2 D,2 C,4 | z2 G,2 A,2 D,2 | G,3 F, E,D, C,2- | C,2 F,3 E,D,C, | B,,2 A,,2 B,,2 C,2 | D,4 B,,4 | %164
w: pro- pter me,|t i- pse|vi- * * * vet|_ pro- * * *|||
w: ||||||
 C,8 | F,,4 F,4- | F,2 F,2 D,4 | D,4 G,4- | G,4 C,4- | C,4 F,4- | F,2 F,2 F,4 | D,4 D,4 | G,6 F,2 | %173
w: pter|me, hic|_ est pa-|nis vi-|* vus|_ qui|_ de coe-|* lo|de- *|
w: |||||||||
 E,2 D,2 C,4 | C,4 F,4- | F,2 E,2 D,2 C,2 | B,,4 B,,4 | B,3 A, G,2 F,2 | E,2 D,2 C,4 | D,6 C,2 | %180
w: scen- * dit,|de scen-||dit, de|scen- * * *|||
w: |||||||
 B,,4 A,,2 F,,2 | C,8 |:[M:3/2] F,,8 F,4 | F,4 C,4 _E,4- | E,2 D,2 B,,2 C,2 D,2 E,2 | %185
w: ||dit non|sic- ut pa-||
w: ||man- du-|ca- ve- *||
 F,4 F,,6 G,,2 |1 A,,2 B,,2 C,4 C,4 :|2 A,,2 B,,2 C,4 D,4 || B,,4 C,8 |[M:2/2] F,,8 | F,8 | %191
w: tres ve- *|* * * stri-|||na|et|
w: runt man- *||||||
 B,,4 B,,4 | C,6 G,,2 | G,,8 | F,6 F,2 | F,4 B,,4 | B,,4 F,4 | G,8 | F,8- | F,8 | z4 G,4- | %201
w: mor- tu-|i _|sunt.|Qui man-|du- cat|hunc pa-||nem,|_|vi|
w: ||||||||||
"^b" G,4 E,4 | F,8 | D,4 E,4- | E,4 C,4 | F,6 F,2 | C,4 C,4 | G,8 |"^-natural" C,4 z4 | %209
w: _ vet|in|ae- ter-|* num,|vi- vet|in ae-|ter-|num,|
w: ||||||||
"^b" G,4 E,2 F,2- | F,2 D,2 E,4 | C,4 D,3 E, | F,3 E, D,2 C,2 | G,2 A,2 G,4 | C,2 F,4 E,2 | %215
w: vi- vet in|_ ae- ter-|num in _|ae- * * ter-||num, in ae-|
w: ||||||
 F,2 D,2 C,4 | D,6 C,2 | B,,2 A,,2 B,,4 | F,,8 |] %219
w: ter- * *|||num.|
w: ||||

